;FLAVOR:UltiGCode
;TIME:4225
;MATERIAL:5521
;MATERIAL2:0
;NOZZLE_DIAMETER:0.4
;Generated with Cura_SteamEngine 3.0.4
M82 ; absolute extrusion mode

;LAYER_COUNT:188
;LAYER:0
M107
G0 F3600 X75.908 Y95.932 Z0.3
;TYPE:SKIRT
G1 F1800 X76.531 Y95.446 E0.09482
G1 X77.2 Y95.026 E0.18961
G1 X77.908 Y94.676 E0.28438
G1 X78.66 Y94.394 E0.38076
G1 X79.711 Y94.062 E0.51302
G1 X80.476 Y93.863 E0.60788
G1 X81.256 Y93.742 E0.70259
G1 X82.061 Y93.7 E0.79933
G1 X101.411 Y93.7 E3.12133
G1 X101.411 Y83.86 E4.30213
G1 X101.451 Y83.071 E4.39693
G1 X101.57 Y82.291 E4.49161
G1 X101.768 Y81.526 E4.58644
G1 X102.042 Y80.786 E4.68113
G1 X102.39 Y80.077 E4.7759
G1 X102.808 Y79.406 E4.87077
G1 X103.291 Y78.782 E4.96546
G1 X103.696 Y78.345 E5.03696
G1 X103.813 Y78.228 E5.05681
G1 X104.399 Y77.698 E5.15163
G1 X105.035 Y77.231 E5.24631
G1 X105.715 Y76.83 E5.34105
G1 X106.433 Y76.5 E5.43587
G1 X107.18 Y76.245 E5.53059
G1 X107.949 Y76.066 E5.62534
G1 X108.733 Y75.966 E5.72018
G1 X109.327 Y75.943 E5.79151
G1 X116.148 Y75.942 E6.61003
G1 X116.276 Y75.33 E6.68506
G1 X116.514 Y74.577 E6.77983
G1 X116.827 Y73.852 E6.87459
G1 X117.211 Y73.162 E6.96935
G1 X117.663 Y72.515 E7.06406
G1 X118.179 Y71.916 E7.15893
G1 X118.752 Y71.373 E7.25366
G1 X119.377 Y70.891 E7.34837
G1 X120.048 Y70.474 E7.44317
G1 X120.758 Y70.128 E7.53795
G1 X121.499 Y69.854 E7.63276
G1 X122.263 Y69.658 E7.72741
G1 X123.044 Y69.539 E7.82221
G1 X123.823 Y69.5 E7.9158
G1 X130.754 Y69.5 E8.74752
G1 X130.794 Y69.46 E8.75431
G1 X131.409 Y68.964 E8.84912
G1 X132.071 Y68.533 E8.94392
G1 X132.772 Y68.171 E9.03859
G1 X133.507 Y67.882 E9.13336
G1 X134.268 Y67.669 E9.22819
G1 X135.046 Y67.534 E9.32295
G1 X135.994 Y67.476 E9.43692
G1 X140.299 Y67.477 E9.95352
G1 X141.087 Y67.517 E10.0482
G1 X141.868 Y67.637 E10.14302
G1 X142.632 Y67.835 E10.23773
G1 X143.373 Y68.109 E10.33254
G1 X144.082 Y68.457 E10.42731
G1 X144.752 Y68.875 E10.52208
G1 X145.377 Y69.358 E10.61686
G1 X145.949 Y69.902 E10.71159
G1 X146.464 Y70.501 E10.80638
G1 X146.915 Y71.149 E10.90112
G1 X147.014 Y71.328 E10.92567
G1 X147.082 Y71.38 E10.93594
G1 X147.519 Y71.785 E11.00744
G1 X147.753 Y72.019 E11.04715
G1 X148.283 Y72.605 E11.14196
G1 X148.75 Y73.241 E11.23665
G1 X149.151 Y73.921 E11.33138
G1 X149.481 Y74.639 E11.4262
G1 X149.736 Y75.386 E11.52092
G1 X149.915 Y76.155 E11.61567
G1 X150.015 Y76.939 E11.71051
G1 X150.038 Y77.534 E11.78197
G1 X150.038 Y80.466 E12.13381
G1 X149.998 Y81.255 E12.22861
G1 X149.879 Y82.035 E12.32329
G1 X149.681 Y82.8 E12.41812
G1 X149.407 Y83.54 E12.51281
G1 X149.059 Y84.249 E12.60758
G1 X148.641 Y84.92 E12.70245
G1 X148.158 Y85.544 E12.79714
G1 X147.753 Y85.981 E12.86864
G1 X147.519 Y86.215 E12.90835
G1 X146.933 Y86.745 E13.00316
G1 X146.297 Y87.212 E13.09785
G1 X145.721 Y87.552 E13.17811
G1 X145.431 Y87.923 E13.23462
G1 X144.884 Y88.493 E13.32942
G1 X144.283 Y89.005 E13.42416
G1 X143.633 Y89.453 E13.51889
G1 X142.941 Y89.833 E13.61363
G1 X142.214 Y90.142 E13.70842
G1 X141.459 Y90.375 E13.80324
G1 X140.685 Y90.531 E13.89799
G1 X139.535 Y90.616 E14.03636
G1 X135.854 Y90.616 E14.47808
G1 X135.065 Y90.576 E14.57289
G1 X134.285 Y90.457 E14.66757
G1 X133.52 Y90.259 E14.76239
G1 X132.78 Y89.985 E14.85709
G1 X132.071 Y89.637 E14.95186
G1 X131.4 Y89.219 E15.04673
G1 X130.776 Y88.736 E15.14142
G1 X130.527 Y88.5 E15.18259
G1 X127.011 Y88.5 E15.60451
G1 X127.011 Y103.661 E17.42383
G1 X127.281 Y103.606 E17.45689
G1 X128.066 Y103.525 E17.55159
G1 X128.856 Y103.525 E17.64639
G1 X129.642 Y103.604 E17.74119
G1 X130.415 Y103.762 E17.83587
G1 X131.38 Y104.079 E17.95775
G1 X132.399 Y104.489 E18.08956
G1 X133.115 Y104.82 E18.18422
G1 X133.795 Y105.222 E18.27901
G1 X134.43 Y105.691 E18.37374
G1 X135.015 Y106.222 E18.46855
G1 X135.543 Y106.809 E18.56329
G1 X136.009 Y107.447 E18.6581
G1 X136.408 Y108.128 E18.75281
G1 X136.736 Y108.846 E18.84754
G1 X136.99 Y109.594 E18.94233
G1 X137.167 Y110.364 E19.03714
G1 X137.266 Y111.147 E19.13185
G1 X137.287 Y111.725 E19.20125
G1 X137.287 Y115.275 E19.62725
G1 X137.247 Y116.064 E19.72206
G1 X137.128 Y116.844 E19.81674
G1 X136.93 Y117.609 E19.91156
G1 X136.656 Y118.349 E20.00626
G1 X136.308 Y119.058 E20.10103
G1 X135.89 Y119.729 E20.1959
G1 X135.407 Y120.353 E20.29059
G1 X134.864 Y120.926 E20.38532
G1 X134.265 Y121.441 E20.48011
G1 X133.617 Y121.892 E20.57485
G1 X132.926 Y122.276 E20.66972
G1 X132.399 Y122.511 E20.73896
G1 X131.38 Y122.921 E20.87076
G1 X130.633 Y123.179 E20.9656
G1 X129.864 Y123.359 E21.06037
G1 X129.081 Y123.461 E21.15513
G1 X128.292 Y123.483 E21.24985
G1 X127.504 Y123.425 E21.34466
G1 X127.009 Y123.338 E21.40497
G1 X127.002 Y143.522 E23.82705
G1 X126.962 Y144.31 E23.92173
G1 X126.842 Y145.091 E24.01655
G1 X126.644 Y145.855 E24.11126
G1 X126.349 Y146.642 E24.21212
G1 X125.732 Y148.054 E24.39703
G1 X125.38 Y148.761 E24.4918
G1 X124.958 Y149.428 E24.58652
G1 X124.471 Y150.05 E24.68131
G1 X123.923 Y150.619 E24.77611
G1 X123.32 Y151.129 E24.87088
G1 X122.669 Y151.576 E24.96564
G1 X121.977 Y151.955 E25.06032
G1 X121.527 Y152.155 E25.11942
G1 X120.13 Y152.724 E25.30043
G1 X119.385 Y152.984 E25.39512
G1 X118.617 Y153.168 E25.48988
G1 X117.834 Y153.273 E25.58469
G1 X117.188 Y153.3 E25.66227
G1 X111.234 Y153.3 E26.37675
G1 X110.445 Y153.26 E26.47155
G1 X109.665 Y153.141 E26.56624
G1 X108.9 Y152.943 E26.66106
G1 X108.292 Y152.724 E26.73861
G1 X106.895 Y152.155 E26.91962
G1 X106.179 Y151.82 E27.01448
G1 X105.502 Y151.415 E27.10915
G1 X104.868 Y150.944 E27.20393
G1 X104.286 Y150.41 E27.29871
G1 X103.76 Y149.821 E27.39347
G1 X103.297 Y149.181 E27.48826
G1 X102.901 Y148.498 E27.583
G1 X102.69 Y148.054 E27.64199
G1 X102.073 Y146.642 E27.8269
G1 X101.793 Y145.904 E27.92162
G1 X101.59 Y145.14 E28.01648
G1 X101.466 Y144.361 E28.11114
G1 X101.42 Y143.523 E28.21185
G1 X101.415 Y133.298 E29.43885
G1 X82.026 Y133.294 E31.76553
G1 X81.238 Y133.254 E31.86021
G1 X80.457 Y133.134 E31.95503
G1 X79.52 Y132.88 E32.07153
G1 X78.451 Y132.517 E32.20701
G1 X77.717 Y132.225 E32.3018
G1 X77.016 Y131.861 E32.39658
G1 X76.356 Y131.428 E32.49131
G1 X75.743 Y130.93 E32.58608
G1 X75.183 Y130.373 E32.68086
G1 X74.619 Y129.675 E32.78855
G1 X73.969 Y128.768 E32.92245
G1 X73.542 Y128.103 E33.01729
G1 X73.184 Y127.399 E33.11206
G1 X72.9 Y126.662 E33.20684
G1 X72.691 Y125.901 E33.30154
G1 X72.561 Y125.122 E33.39632
G1 X72.509 Y124.224 E33.50426
G1 X72.509 Y123.107 E33.6383
G1 X72.549 Y122.318 E33.7331
G1 X72.668 Y121.538 E33.82778
G1 X72.866 Y120.773 E33.92261
G1 X73.14 Y120.033 E34.0173
G1 X73.488 Y119.324 E34.11207
G1 X73.896 Y118.668 E34.20478
G1 X74.519 Y117.768 E34.33613
G1 X75.126 Y116.999 E34.45369
G1 X76.828 Y115.101 E34.75961
G1 X77.228 Y114.058 E34.89366
G1 X77.228 Y112.944 E35.02734
G1 X76.827 Y111.897 E35.16188
G1 X75.116 Y109.989 E35.46942
G1 X74.431 Y109.106 E35.60353
G1 X73.797 Y108.154 E35.74078
G1 X73.393 Y107.475 E35.83559
G1 X73.06 Y106.759 E35.93035
G1 X72.801 Y106.013 E36.02511
G1 X72.618 Y105.245 E36.11985
G1 X72.515 Y104.462 E36.21462
G1 X72.494 Y103.55 E36.32409
G1 X72.534 Y102.438 E36.45762
G1 X72.602 Y101.651 E36.55241
G1 X72.75 Y100.875 E36.64721
G1 X72.975 Y100.118 E36.74198
G1 X73.276 Y99.388 E36.83673
G1 X73.648 Y98.692 E36.93143
G1 X74.145 Y97.965 E37.03711
G1 X74.826 Y97.079 E37.17121
G1 X75.338 Y96.478 E37.26595
G1 X75.908 Y95.932 E37.36067
G0 F3600 X76.2 Y96.208
G1 F1800 X76.81 Y95.739 E37.453
G1 X77.465 Y95.336 E37.54529
G1 X78.159 Y95.003 E37.63766
G1 X78.781 Y94.776 E37.71711
G1 X79.832 Y94.444 E37.84938
G1 X80.576 Y94.25 E37.94164
G1 X81.337 Y94.136 E38.03398
G1 X82.061 Y94.1 E38.12097
G1 X101.811 Y94.1 E40.49097
G1 X101.811 Y83.86 E41.71977
G1 X101.851 Y83.092 E41.81205
G1 X101.97 Y82.332 E41.90436
G1 X102.168 Y81.589 E41.99663
G1 X102.442 Y80.87 E42.08897
G1 X102.789 Y80.184 E42.18122
G1 X103.205 Y79.537 E42.27352
G1 X103.686 Y78.937 E42.3658
G1 X103.978 Y78.627 E42.41691
G1 X104.095 Y78.51 E42.43676
G1 X104.667 Y77.996 E42.52904
G1 X105.289 Y77.543 E42.62138
G1 X105.954 Y77.157 E42.71365
G1 X106.656 Y76.842 E42.80598
G1 X107.387 Y76.602 E42.89831
G1 X108.138 Y76.439 E42.99053
G1 X108.903 Y76.355 E43.08288
G1 X109.327 Y76.343 E43.13378
G1 X116.495 Y76.342 E43.99394
G1 X116.544 Y75.967 E44.03932
G1 X116.722 Y75.219 E44.13159
G1 X116.976 Y74.493 E44.22389
G1 X117.304 Y73.798 E44.31611
G1 X117.703 Y73.14 E44.40845
G1 X118.168 Y72.527 E44.50078
G1 X118.694 Y71.966 E44.59306
G1 X119.275 Y71.462 E44.68536
G1 X119.906 Y71.022 E44.77767
G1 X120.579 Y70.649 E44.87001
G1 X121.287 Y70.348 E44.96233
G1 X122.022 Y70.123 E45.05457
G1 X122.777 Y69.974 E45.14691
G1 X123.823 Y69.9 E45.27275
G1 X130.92 Y69.9 E46.12439
G1 X131.121 Y69.705 E46.15799
G1 X131.725 Y69.23 E46.2502
G1 X132.376 Y68.82 E46.34252
G1 X133.066 Y68.479 E46.43488
G1 X133.787 Y68.212 E46.52714
G1 X134.532 Y68.021 E46.61944
G1 X135.293 Y67.909 E46.71174
G1 X135.994 Y67.876 E46.79595
G1 X140.299 Y67.877 E47.31255
G1 X141.067 Y67.917 E47.40484
G1 X141.827 Y68.037 E47.49717
G1 X142.57 Y68.235 E47.58944
G1 X143.289 Y68.509 E47.68177
G1 X143.975 Y68.856 E47.77402
G1 X144.622 Y69.272 E47.86633
G1 X145.222 Y69.754 E47.95868
G1 X145.768 Y70.295 E48.05092
G1 X146.256 Y70.889 E48.14317
G1 X146.679 Y71.532 E48.23553
G1 X146.718 Y71.608 E48.24578
G1 X146.927 Y71.775 E48.27788
G1 X147.237 Y72.067 E48.32899
G1 X147.471 Y72.301 E48.3687
G1 X147.985 Y72.873 E48.46098
G1 X148.438 Y73.495 E48.55332
G1 X148.824 Y74.16 E48.64558
G1 X149.139 Y74.862 E48.73792
G1 X149.379 Y75.593 E48.83024
G1 X149.542 Y76.344 E48.92246
G1 X149.626 Y77.109 E49.01481
G1 X149.638 Y77.534 E49.06583
G1 X149.638 Y80.466 E49.41767
G1 X149.598 Y81.234 E49.50996
G1 X149.479 Y81.994 E49.60227
G1 X149.281 Y82.737 E49.69454
G1 X149.007 Y83.456 E49.78687
G1 X148.66 Y84.142 E49.87913
G1 X148.244 Y84.789 E49.97143
G1 X147.763 Y85.389 E50.06371
G1 X147.471 Y85.699 E50.11481
G1 X147.237 Y85.933 E50.15453
G1 X146.665 Y86.447 E50.24681
G1 X146.043 Y86.9 E50.33914
G1 X145.459 Y87.239 E50.42018
G1 X145.089 Y87.706 E50.49167
G1 X144.551 Y88.256 E50.584
G1 X143.96 Y88.748 E50.67628
G1 X143.32 Y89.175 E50.7686
G1 X142.639 Y89.533 E50.86093
G1 X141.925 Y89.819 E50.95322
G1 X141.186 Y90.03 E51.04545
G1 X140.428 Y90.162 E51.13778
G1 X139.535 Y90.216 E51.24513
G1 X135.854 Y90.216 E51.68685
G1 X135.086 Y90.176 E51.77914
G1 X134.326 Y90.057 E51.87145
G1 X133.583 Y89.859 E51.96372
G1 X132.864 Y89.585 E52.05605
G1 X132.178 Y89.238 E52.1483
G1 X131.531 Y88.822 E52.24061
G1 X130.931 Y88.341 E52.33289
G1 X130.687 Y88.1 E52.37404
G1 X126.611 Y88.1 E52.86316
G1 X126.611 Y104.161 E54.79048
G1 X126.861 Y104.092 E54.8216
G1 X127.619 Y103.964 E54.91385
G1 X128.387 Y103.915 E55.0062
G1 X129.155 Y103.947 E55.09844
G1 X129.916 Y104.058 E55.19073
G1 X130.662 Y104.248 E55.2831
G1 X131.23 Y104.45 E55.35545
G1 X132.249 Y104.86 E55.48725
G1 X132.947 Y105.184 E55.5796
G1 X133.607 Y105.578 E55.67184
G1 X134.223 Y106.039 E55.76416
G1 X134.788 Y106.561 E55.85647
G1 X135.295 Y107.139 E55.94873
G1 X135.74 Y107.767 E56.04109
G1 X136.117 Y108.437 E56.13335
G1 X136.422 Y109.143 E56.22564
G1 X136.653 Y109.877 E56.31798
G1 X136.806 Y110.631 E56.4103
G1 X136.887 Y111.725 E56.54194
G1 X136.887 Y115.275 E56.96794
G1 X136.847 Y116.043 E57.06022
G1 X136.728 Y116.803 E57.15253
G1 X136.53 Y117.546 E57.24481
G1 X136.256 Y118.265 E57.33714
G1 X135.909 Y118.951 E57.42939
G1 X135.493 Y119.598 E57.52169
G1 X135.012 Y120.198 E57.61397
G1 X134.471 Y120.745 E57.7063
G1 X133.876 Y121.233 E57.79864
G1 X133.234 Y121.656 E57.8909
G1 X132.249 Y122.14 E58.0226
G1 X131.23 Y122.55 E58.1544
G1 X130.503 Y122.8 E58.24666
G1 X129.753 Y122.973 E58.33902
G1 X128.99 Y123.067 E58.43127
G1 X128.221 Y123.081 E58.52357
G1 X127.454 Y123.015 E58.61595
G1 X126.699 Y122.87 E58.7082
G1 X126.609 Y122.843 E58.71948
G1 X126.602 Y143.522 E61.20096
G1 X126.562 Y144.29 E61.29325
G1 X126.442 Y145.05 E61.38557
G1 X126.244 Y145.793 E61.47785
G1 X125.983 Y146.482 E61.56626
G1 X125.366 Y147.894 E61.75117
G1 X125.022 Y148.582 E61.84348
G1 X124.608 Y149.23 E61.93575
G1 X124.129 Y149.832 E62.02807
G1 X123.59 Y150.381 E62.12039
G1 X122.998 Y150.871 E62.21261
G1 X122.357 Y151.297 E62.30497
G1 X121.376 Y151.784 E62.43639
G1 X119.979 Y152.353 E62.61741
G1 X119.253 Y152.606 E62.70967
G1 X118.504 Y152.782 E62.80199
G1 X117.741 Y152.879 E62.89429
G1 X117.188 Y152.9 E62.9607
G1 X111.234 Y152.9 E63.67518
G1 X110.466 Y152.86 E63.76746
G1 X109.706 Y152.741 E63.85977
G1 X108.963 Y152.543 E63.95205
G1 X108.443 Y152.353 E64.01848
G1 X107.046 Y151.784 E64.19949
G1 X106.349 Y151.458 E64.29183
G1 X105.691 Y151.06 E64.38411
G1 X105.077 Y150.597 E64.47639
G1 X104.515 Y150.072 E64.56868
G1 X104.01 Y149.492 E64.66096
G1 X103.568 Y148.862 E64.75331
G1 X103.056 Y147.894 E64.88472
G1 X102.439 Y146.482 E65.06963
G1 X102.168 Y145.762 E65.16195
G1 X101.973 Y145.018 E65.25425
G1 X101.857 Y144.258 E65.3465
G1 X101.82 Y143.523 E65.43481
G1 X101.815 Y132.898 E66.70981
G1 X82.026 Y132.894 E69.08449
G1 X81.258 Y132.854 E69.17678
G1 X80.498 Y132.734 E69.26911
G1 X79.649 Y132.501 E69.37476
G1 X78.58 Y132.138 E69.51023
G1 X77.865 Y131.853 E69.60259
G1 X77.184 Y131.496 E69.69486
G1 X76.544 Y131.07 E69.78712
G1 X75.951 Y130.579 E69.87951
G1 X75.413 Y130.03 E69.97175
G1 X74.944 Y129.442 E70.062
G1 X74.294 Y128.535 E70.19591
G1 X73.879 Y127.887 E70.28825
G1 X73.534 Y127.2 E70.3805
G1 X73.261 Y126.48 E70.4729
G1 X73.065 Y125.737 E70.56511
G1 X72.947 Y124.977 E70.6574
G1 X72.909 Y124.224 E70.74788
G1 X72.909 Y123.107 E70.88192
G1 X72.949 Y122.339 E70.9742
G1 X73.068 Y121.579 E71.06651
G1 X73.266 Y120.836 E71.15879
G1 X73.54 Y120.117 E71.25112
G1 X73.887 Y119.431 E71.34337
G1 X74.225 Y118.895 E71.41941
G1 X74.848 Y117.995 E71.55076
G1 X75.423 Y117.266 E71.66218
G1 X77.175 Y115.313 E71.97702
G1 X77.628 Y114.13 E72.12903
G1 X77.628 Y112.869 E72.28035
G1 X77.175 Y111.686 E72.43236
G1 X75.414 Y109.722 E72.74891
G1 X74.764 Y108.884 E72.87617
G1 X74.13 Y107.932 E73.01343
G1 X73.737 Y107.27 E73.10581
G1 X73.416 Y106.572 E73.19801
G1 X73.168 Y105.843 E73.29041
G1 X72.998 Y105.093 E73.38269
G1 X72.906 Y104.33 E73.47492
G1 X72.894 Y103.564 E73.56685
G1 X72.934 Y102.452 E73.70037
G1 X73.001 Y101.686 E73.79265
G1 X73.148 Y100.931 E73.88495
G1 X73.372 Y100.195 E73.97727
G1 X73.672 Y99.487 E74.06954
G1 X74.043 Y98.813 E74.16186
G1 X74.462 Y98.208 E74.25017
G1 X75.143 Y97.322 E74.38427
G1 X75.643 Y96.738 E74.47653
G1 X76.2 Y96.208 E74.56879
G0 F3600 X76.492 Y96.486
G1 F1800 X77.088 Y96.034 E74.65855
G1 X77.729 Y95.648 E74.74834
G1 X78.408 Y95.334 E74.83811
G1 X78.901 Y95.157 E74.90097
G1 X79.952 Y94.825 E75.03323
G1 X80.677 Y94.638 E75.12308
G1 X81.417 Y94.53 E75.21282
G1 X82.061 Y94.5 E75.29018
G1 X102.211 Y94.5 E77.70818
G1 X102.211 Y83.86 E78.98498
G1 X102.251 Y83.113 E79.07475
G1 X102.37 Y82.375 E79.16446
G1 X102.568 Y81.653 E79.2543
G1 X102.841 Y80.957 E79.34401
G1 X103.188 Y80.294 E79.43381
G1 X103.603 Y79.671 E79.52364
G1 X104.261 Y78.91 E79.64436
G1 X104.378 Y78.793 E79.66422
G1 X104.935 Y78.293 E79.75403
G1 X105.541 Y77.856 E79.84369
G1 X106.191 Y77.485 E79.9335
G1 X106.877 Y77.186 E80.0233
G1 X107.591 Y76.962 E80.1131
G1 X108.324 Y76.815 E80.20281
G1 X109.327 Y76.743 E80.32348
G1 X116.852 Y76.742 E81.22648
G1 X116.86 Y76.577 E81.2463
G1 X116.977 Y75.838 E81.33609
G1 X117.172 Y75.116 E81.42583
G1 X117.443 Y74.419 E81.51557
G1 X117.787 Y73.754 E81.60542
G1 X118.2 Y73.131 E81.69511
G1 X118.677 Y72.554 E81.78495
G1 X119.213 Y72.032 E81.87473
G1 X119.802 Y71.57 E81.96456
G1 X120.436 Y71.174 E82.05426
G1 X121.109 Y70.848 E82.144
G1 X121.813 Y70.595 E82.23377
G1 X122.54 Y70.419 E82.32353
G1 X123.282 Y70.321 E82.41334
G1 X123.823 Y70.3 E82.47831
G1 X131.081 Y70.3 E83.34927
G1 X131.446 Y69.953 E83.4097
G1 X132.04 Y69.498 E83.49949
G1 X132.679 Y69.109 E83.58926
G1 X133.356 Y68.791 E83.67902
G1 X134.063 Y68.547 E83.76877
G1 X134.792 Y68.38 E83.85852
G1 X135.535 Y68.291 E83.94831
G1 X135.994 Y68.276 E84.00342
G1 X140.299 Y68.277 E84.52002
G1 X141.046 Y68.317 E84.60979
G1 X141.784 Y68.437 E84.69951
G1 X142.506 Y68.635 E84.78935
G1 X143.202 Y68.908 E84.87907
G1 X143.865 Y69.254 E84.96881
G1 X144.487 Y69.67 E85.0586
G1 X145.062 Y70.149 E85.14841
G1 X145.582 Y70.686 E85.23811
G1 X146.041 Y71.277 E85.32791
